X:437
T:Machine Without Horses
S:Colin Hume's website,  colinhume.com  - chords can also be printed below the stave.
Q:3/8=112
M:6/8
L:1/8
K:G
P:A
|:D | "G"G3/A/B/c/ "/"dBG | "C"Gge "G"dBG | "C"cec "G/B"dBd | "Am"ABG "D7"FED |
"G"G3/A/B/c/ "/"dBG | "Em"Ggf "/"efg | "D"afd "A7"ge^c | "D"d3 "/"D2 :|
P:B
d | "G"dBd "/"dBd | "D7"cAc "/"cAc | "G"Bdg "Em"dBG | "Am"ABG "D7"FED |\
"G"dBd "/"dBd | "D7"cAc "/"cAc | "G"Bdg "/"dBG | "D7"cAF "G"G2d |
P:C
"G"dBd "/"dBd | "D7"cAc "/"cAc | "G"Bdg "Em"dBG | "Am"ABG "D7"FED |\
"G"GDG "/"BGB | "/"dBd "/"g2 d | "C"efg "D"agf | "G"g3 "/"G2 |]

